icons/Logos/vuejs-fill.svg

<svg viewBox="0 0 24 24" xmlns="http://www.w3.org/2000/svg"><path d="M1.00098 3H5.00098L12.001 15L19.001 3H23.001L12.001 22L1.00098 3ZM9.66764 3L12.001 7L14.3343 3H18.3694L12.001 14L5.63256 3H9.66764Z"/></svg>

<svg xmlns="http://www.w3.org/2000/svg" viewBox="0 0 24 24">
    <g>
        <path fill="none" d="M0 0h24v24H0z"/>
        <path d="M1 3h4l7 12 7-12h4L12 22 1 3zm8.667 0L12 7l2.333-4h4.035L12 14 5.632 3h4.035z"/>
    </g>
</svg>
